src/assets/active-dish.svg

<svg width="24" height="24" viewBox="0 0 24 24" fill="none" xmlns="http://www.w3.org/2000/svg">
<path d="M6.67 4.00002C6.046 4.00002 5.495 4.43802 5.38 5.06802C5.232 5.88602 5 7.34202 5 8.50002C5 9.73102 5.636 10.813 6.595 11.436C6.866 11.613 7 11.841 7 12.036V12.446C7 12.464 6.999 12.482 6.997 12.5C6.97 12.76 6.846 13.929 6.729 15.131C6.614 16.316 6.5 17.581 6.5 18C6.5 18.5304 6.71071 19.0392 7.08579 19.4142C7.46086 19.7893 7.96957 20 8.5 20C9.03043 20 9.53914 19.7893 9.91421 19.4142C10.2893 19.0392 10.5 18.5304 10.5 18C10.5 17.58 10.386 16.316 10.271 15.131C10.1855 14.254 10.0962 13.3773 10.003 12.501L10 12.446V12.036C10 11.84 10.134 11.612 10.405 11.436C10.8945 11.1184 11.2969 10.6834 11.5755 10.1706C11.854 9.65786 12 9.08357 12 8.50002C12 7.34202 11.768 5.88602 11.62 5.06802C11.5644 4.76696 11.4047 4.49503 11.1689 4.29979C10.9331 4.10456 10.6361 3.99845 10.33 4.00002C9.99 4.00002 9.68 4.12702 9.446 4.33602C9.17862 4.11869 8.84457 4.00004 8.5 4.00002C8.141 4.00002 7.812 4.12602 7.554 4.33602C7.3112 4.11891 6.99571 3.99924 6.67 4.00002ZM8 5.50002C8 5.36741 8.05268 5.24023 8.14645 5.14646C8.24021 5.0527 8.36739 5.00002 8.5 5.00002C8.63261 5.00002 8.75979 5.0527 8.85355 5.14646C8.94732 5.24023 9 5.36741 9 5.50002V8.50002C9 8.63263 9.05268 8.7598 9.14645 8.85357C9.24021 8.94734 9.36739 9.00002 9.5 9.00002C9.63261 9.00002 9.75979 8.94734 9.85355 8.85357C9.94732 8.7598 10 8.63263 10 8.50002V5.33002C10 5.28668 10.0085 5.24377 10.0251 5.20373C10.0417 5.16369 10.066 5.12732 10.0967 5.09667C10.1273 5.06603 10.1637 5.04172 10.2037 5.02514C10.2438 5.00855 10.2867 5.00002 10.33 5.00002C10.487 5.00002 10.61 5.10802 10.636 5.24702C10.783 6.06002 11 7.43902 11 8.50002C11 8.91705 10.8958 9.32748 10.6967 9.69391C10.4975 10.0603 10.2099 10.3711 9.86 10.598C9.421 10.883 9 11.384 9 12.036V12.446C9 12.4994 9.00267 12.5527 9.008 12.606C9.036 12.864 9.159 14.03 9.276 15.228C9.394 16.443 9.5 17.643 9.5 18C9.5 18.2652 9.39464 18.5196 9.20711 18.7071C9.01957 18.8947 8.76522 19 8.5 19C8.23478 19 7.98043 18.8947 7.79289 18.7071C7.60536 18.5196 7.5 18.2652 7.5 18C7.5 17.643 7.606 16.443 7.724 15.228C7.841 14.03 7.964 12.864 7.992 12.606C7.99733 12.5527 8 12.4994 8 12.446V12.036C8 11.384 7.579 10.883 7.14 10.598C6.79007 10.3711 6.50245 10.0603 6.30334 9.69391C6.10423 9.32748 5.99995 8.91705 6 8.50002C6 7.44002 6.217 6.06002 6.364 5.24702C6.3777 5.17619 6.41605 5.11251 6.47226 5.06729C6.52847 5.02207 6.59888 4.99823 6.671 5.00002C6.75835 5.00028 6.84203 5.03517 6.9037 5.09702C6.96537 5.15888 7 5.24267 7 5.33002V8.50002C7 8.63263 7.05268 8.7598 7.14645 8.85357C7.24021 8.94734 7.36739 9.00002 7.5 9.00002C7.63261 9.00002 7.75979 8.94734 7.85355 8.85357C7.94732 8.7598 8 8.63263 8 8.50002V5.50002ZM13 8.50002C13 7.30654 13.4741 6.16195 14.318 5.31804C15.1619 4.47412 16.3065 4.00002 17.5 4.00002C17.6326 4.00002 17.7598 4.0527 17.8536 4.14646C17.9473 4.24023 18 4.36741 18 4.50002V11.478L18.02 11.702C18.0979 12.6005 18.1739 13.4992 18.248 14.398C18.372 15.905 18.5 17.559 18.5 18C18.5 18.5304 18.2893 19.0392 17.9142 19.4142C17.5391 19.7893 17.0304 20 16.5 20C15.9696 20 15.4609 19.7893 15.0858 19.4142C14.7107 19.0392 14.5 18.5304 14.5 18C14.5 17.56 14.628 15.905 14.752 14.398C14.814 13.637 14.877 12.901 14.924 12.356L14.954 12H14.5C14.1022 12 13.7206 11.842 13.4393 11.5607C13.158 11.2794 13 10.8978 13 10.5V8.50002ZM15.998 11.544L15.977 11.789L15.92 12.442C15.873 12.986 15.81 13.72 15.748 14.48C15.622 16.017 15.5 17.612 15.5 18C15.5 18.2652 15.6054 18.5196 15.7929 18.7071C15.9804 18.8947 16.2348 19 16.5 19C16.7652 19 17.0196 18.8947 17.2071 18.7071C17.3946 18.5196 17.5 18.2652 17.5 18C17.5 17.612 17.378 16.017 17.252 14.48C17.1778 13.5828 17.1015 12.6858 17.023 11.789L17.002 11.545V11.544L17 11.5V5.03502C16.1669 5.15527 15.4049 5.57177 14.854 6.20817C14.303 6.84457 13.9998 7.65823 14 8.50002V10.5C14 10.6326 14.0527 10.7598 14.1464 10.8536C14.2402 10.9473 14.3674 11 14.5 11H15.5C15.5694 11 15.638 11.0145 15.7015 11.0424C15.7649 11.0704 15.8219 11.1112 15.8687 11.1624C15.9156 11.2136 15.9513 11.2739 15.9735 11.3396C15.9958 11.4053 16.0041 11.4749 15.998 11.544Z" fill="#0C3B97"/>
</svg>

<svg xmlns="http://www.w3.org/2000/svg" width="24" height="24" fill="none"><path fill="#0C3B97" d="M6.67 4c-.624 0-1.175.438-1.29 1.068C5.232 5.886 5 7.342 5 8.5c0 1.231.636 2.313 1.595 2.936.271.177.405.405.405.6v.41l-.003.054c-.027.26-.151 1.429-.268 2.631C6.614 16.316 6.5 17.581 6.5 18a2 2 0 1 0 4 0c0-.42-.114-1.684-.229-2.869q-.129-1.316-.268-2.63L10 12.446v-.41c0-.196.134-.424.405-.6A3.5 3.5 0 0 0 12 8.5c0-1.158-.232-2.614-.38-3.432A1.305 1.305 0 0 0 10.33 4c-.34 0-.65.127-.884.336a1.5 1.5 0 0 0-1.892 0A1.32 1.32 0 0 0 6.67 4M8 5.5a.5.5 0 0 1 1 0v3a.5.5 0 0 0 1 0V5.33a.33.33 0 0 1 .33-.33c.157 0 .28.108.306.247.147.813.364 2.192.364 3.253a2.5 2.5 0 0 1-1.14 2.098c-.439.285-.86.786-.86 1.438v.41q0 .08.008.16c.028.258.151 1.424.268 2.622.118 1.215.224 2.415.224 2.772a1 1 0 1 1-2 0c0-.357.106-1.557.224-2.772.117-1.198.24-2.364.268-2.622q.008-.08.008-.16v-.41c0-.652-.421-1.153-.86-1.438A2.5 2.5 0 0 1 6 8.5c0-1.06.217-2.44.364-3.253A.305.305 0 0 1 6.671 5 .33.33 0 0 1 7 5.33V8.5a.5.5 0 0 0 1 0zm5 3A4.5 4.5 0 0 1 17.5 4a.5.5 0 0 1 .5.5v6.978l.02.224q.117 1.348.228 2.696c.124 1.507.252 3.161.252 3.602a2 2 0 1 1-4 0c0-.44.128-2.095.252-3.602.062-.761.125-1.497.172-2.042l.03-.356H14.5a1.5 1.5 0 0 1-1.5-1.5zm2.998 3.044-.021.245-.057.653c-.047.544-.11 1.278-.172 2.038-.126 1.537-.248 3.132-.248 3.52a1 1 0 0 0 2 0c0-.388-.122-1.983-.248-3.52q-.11-1.346-.229-2.691l-.021-.244v-.001L17 11.5V5.035A3.5 3.5 0 0 0 14 8.5v2a.5.5 0 0 0 .5.5h1a.5.5 0 0 1 .498.544"/></svg>
